X: 021384
T: Big Reel of Callightown
S: "Music from Ireland 2" (Bulmer & Sharpley)
Z: B.Black
R: reel
M: 4/4
L: 1/8
K: G
g2 gf g2 gf|g2 ag fd d2|g2 fg abag|fdcA BGBd|
g2 fg a=ffe|=fgfd e3^c|d2 de fdcB|AGFG AG G2 :|
